X:1
T:With Me Hooks and Me Nets
M:3/4
L:1/4
K:C
 z2 G,/2 G,/2| C C E| D2 G,/2 G,/2| F F G| E2E/2-F/2| G2 F/2E/2| E2 D/2C/2|\
 G, E F| D2 G,/2 G,/2| C C E| D2 G,/2 G,/2| F F G| E2E/2-F/2| G2 F/2E/2|\
 E2 D/2C/2| G, E D| C G, G,| C C E| D2 G,/2 G,/2| F F G| E2E/2-F/2|\
 G2 F/2E/2| E2 D/2C/2| G, E D| C2 z|
